!!!!SEGMENT: pl-cz--d-ii-31--008_elsner-jozef--msza-b-op-80-agnus-dei.krn
!!!cenid: 18xx:193
!!!COM: Elsner, Józef
!!!COM-rismID: pe30000957
!!!CDT: 1769/06/01-1854/04/18
!!!CNT: Polish
!!!OPR: Msza B op. 80
!!!OTL: Agnus Dei
!!!OMV: 008
!!!OMD: AGNUS DEI.
!!!PDT:
!!!AGN: Sacred; Mass
!!!SMS-siglum: PL-CZ
!!!SMS-shelfmark: D II-31
!!!SMS-shelfwork: 001-008 M
!!!NIFC-rismSourceID:
!!!NIFC-rismChildID:
!!!NIFC-islandoraID:
!!!URL-pdf-islandora:
!!!URL-scan:
!!!ONB-nifc: UWAGA: części Mszy: Kyrie, Gloria, Graduale Duetto, Credo, Offertorium, Sanctus, Benedictus, Agnus Dei
!!!AIN: 1 bass 1 organ 2 soprn 1 tenor
!!!key:
**kern	**kern	**dynam	**kern	**text	**text	**dynam	**kern	**text	**text	**dynam	**kern	**text	**text	**dynam	**kern	**text	**text	**dynam
*part5	*part5	*part5	*part4	*part4	*part4	*part4	*part3	*part3	*part3	*part3	*part2	*part2	*part2	*part2	*part1	*part1	*part1	*part1
*staff6	*staff5	*	*staff4	*staff4	*staff4	*	*staff3	*staff3	*staff3	*	*staff2	*staff2	*staff2	*	*staff1	*staff1	*staff1	*
*Iorgan	*Iempty	*	*Ibass	*	*	*	*Itenor	*	*	*	*Isoprn	*	*	*	*Isoprn	*	*	*
*I"Organo	*	*	*I"Basso.	*	*	*	*I"Tenore	*	*	*	*I"2o Soprano	*	*	*	*I"1o Soprano	*	*	*
*I'Org	*	*	*I'B	*	*	*	*I'T	*	*	*	*I'S II	*	*	*	*I'S I	*	*	*
*clefF4	*clefG2	*	*clefF4	*	*	*	*clefC4	*	*	*	*clefG2	*	*	*	*clefG2	*	*	*
*k[b-e-]	*k[b-e-]	*	*k[b-e-]	*	*	*	*k[b-e-]	*	*	*	*k[b-e-]	*	*	*	*k[b-e-]	*	*	*
*B-:	*B-:	*	*B-:	*	*	*	*B-:	*	*	*	*B-:	*	*	*	*B-:	*	*	*
*M3/4	*M3/4	*	*M3/4	*	*	*	*M3/4	*	*	*	*M3/4	*	*	*	*M3/4	*	*	*
*>[A,A,B]	*>[A,A,B]	*	*>[A,A,B]	*	*	*	*>[A,A,B]	*	*	*	*>[A,A,B]	*	*	*	*>[A,A,B]	*	*	*
*>A	*>A	*	*>A	*	*	*	*>A	*	*	*	*>A	*	*	*	*>A	*	*	*
!	!LO:TX:a:Bi:t=Andante.	!LO:DY:b:rj	!	!	!	!LO:DY:b:rj	!	!	!	!LO:DY:b:rj	!	!	!	!LO:DY:b:rj	!LO:TX:a:Bi:t=Andante.	!	!	!LO:DY:b:rj
!	!	!	!	!	!	!	!	!	!	!	!	!	!	!	!	!	!	!LO:TX:b:t=P:problem=problem "p" we wszystkich głosach z boku, na pięciolinii
4G\	4g/	p	4G\	1. Pa-	2. Ba-	p	4G/	1. Pa-	2. Ba-	p	4g/	1. Pa-	2. Ba-	p	4g/	1. Pa-	2. Ba-	p
=1	=1	=1	=1	=1	=1	=1	=1	=1	=1	=1	=1	=1	=1	=1	=1	=1	=1	=1
2F#X\	2f#X/	.	2F#X\	-daj-	-ran-	.	2F#X/	-daj-	-ran-	.	2f#X/	-daj-	-ran-	.	2f#X/	-daj-	-ran-	.
4G\	4g/	.	4G\	-cie	-ku	.	4G/	-cie	-ku	.	4g/	-cie	-ku	.	4g/	-cie	-ku	.
=2	=2	=2	=2	=2	=2	=2	=2	=2	=2	=2	=2	=2	=2	=2	=2	=2	=2	=2
4E-\	4e-/	.	4E-\	lu-	Bo-	.	4E-/	lu-	Bo-	.	4e-/	lu-	Bo-	.	4e-/	lu-	Bo-	.
4D\	4d/	.	4D\	-dy	-ży	.	4D/	-dy	-ży	.	4d/	-dy	-ży	.	4d/	-dy	-ży	.
4BB-/	4d\ 4g 4dd	.	4BB-/	u-	zbaw-	.	4d\	u-	zbaw-	.	4g/	u-	zbaw-	.	4dd\	u-	zbaw-	.
=3	=3	=3	=3	=3	=3	=3	=3	=3	=3	=3	=3	=3	=3	=3	=3	=3	=3	=3
*	*^	*	*	*	*	*	*	*	*	*	*	*	*	*	*	*	*	*
4C/	8b-/L 8dd	4e-\	.	4C/	-niż-	-co	.	4e-\	-niż-	-co	.	8g/L	-niż-	-co	.	8dd\L	-niż-	-co	.
.	8a/J 8cc	.	.	.	.	.	.	.	.	.	.	8a/J	.	.	.	8cc\J	.	.	.
4D/	4d/ 4g 4b-	2ryy	.	4D/	-cie	twe-	.	4d\	-cie	twe-	.	4g/	-cie	twe-	.	4b-\	-cie	twe-	.
4D/	4d/ 4f#X 4a	.	.	4D/	się	-go	.	4d\	się	-go	.	4f#X/	się	-go	.	4a\	się	-go	.
*	*v	*v	*	*	*	*	*	*	*	*	*	*	*	*	*	*	*	*	*
=4	=4	=4	=4	=4	=4	=4	=4	=4	=4	=4	=4	=4	=4	=4	=4	=4	=4	=4
.	.	.	.	.	.	.	.	.	.	.	8qqa/	.	.	.	8qqcc/	.	.	.
2G\	2d/ 2g 2b-	.	4G\	tro-	lu-	.	4d\	tro-	lu-	.	4g/	tro-	lu-	.	4b-\	tro-	lu-	.
.	.	.	8G\	-ny	-du	.	8d\	-ny	-du	.	8g/	-ny	-du	.	8b-\	-ny	-du	.
.	.	.	8r	.	.	.	8r	.	.	.	8r	.	.	.	8r	.	.	.
4GG\ 4G	4g\ 4b- 4dd	.	4G\	Przed	U-	.	4B-\	Przed	U-	.	4b-/	Przed	U-	.	4dd\	Przed	U-	.
=5	=5	=5	=5	=5	=5	=5	=5	=5	=5	=5	=5	=5	=5	=5	=5	=5	=5	=5
*	*^	*	*	*	*	*	*	*	*	*	*	*	*	*	*	*	*	*
2.GG\ 2.G	4.ee-/	4.e-\ 4.b- 4.ee-	.	4.G\	smier-	-czyn	.	4.B-\	smier-	-czyn	.	4.b-\	smier-	-czyn	.	4.ee-\	smier-	-czyn	.
.	8ee-/	8e-\ 8b- 8ee-	.	8G\	-tel-	go-	.	8B-\	-tel-	go-	.	8b-\	-tel-	go-	.	8ee-\	-tel-	go-	.
.	4dd/	4g\ 4b-	.	8G\	-ni-	-dne-	.	8d\	-ni-	-dne-	.	8b-\	-ni-	-dne-	.	8dd\	-ni-	-dne-	.
.	.	.	.	8G\	-ków	-mi	.	8d\	-ków	-mi	.	8b-\	-ków	-mi	.	8dd\	-ków	-mi	.
*	*v	*v	*	*	*	*	*	*	*	*	*	*	*	*	*	*	*	*	*
=6	=6	=6	=6	=6	=6	=6	=6	=6	=6	=6	=6	=6	=6	=6	=6	=6	=6	=6
4.GG\ 4.G	4.en/ 4.b- 4.cc#X	.	4.G\	o-	nas	.	4.en\	o-	nas	.	4.b-\	o-	nas	.	4.cc#X\	o-	nas	.
8FF#X\ 8F#X	8d/L 8a 8dd	.	8F#X\	-kiem	no-	.	8d\	-kiem	no-	.	8a/	-kiem	no-	.	8dd\	-kiem	no-	.
4GG\ 4G	8d/ 8g 8b-	.	8G\	u-	-we-	.	8d\	u-	-we-	.	8g/	u-	-we-	.	8b-\	u-	-we-	.
.	8B-/J 8d 8g	.	8GG/	-ta-	-go	.	8d\	-ta-	-go	.	8b-/	-ta-	-go	.	8g/	-ta-	-go	.
=7	=7	=7	=7	=7	=7	=7	=7	=7	=7	=7	=7	=7	=7	=7	=7	=7	=7	=7
4.DD/ 4.D	4d/ 4g 4b-	.	4D/	-jo-	cu-	.	4d\	-jo-	cu-	.	4g/	-jo-	cu-	.	4b-/	-jo-	cu-	.
.	8d/ 8f#X 8a	.	4D/	-ny	-du	.	4d\	-ny	-du	.	4f#X/	-ny	-du	.	4a/	-ny	-du	.
8D\L	8d/L 8dd	.	.	.	.	.	.	.	.	.	.	.	.	.	.	.	.	.
8G\	8g/ 8b-	.	4r	.	.	.	4r	.	.	.	4r	.	.	.	4r	.	.	.
8B-\J	8d/J 8g	.	.	.	.	.	.	.	.	.	.	.	.	.	.	.	.	.
=8	=8	=8	=8	=8	=8	=8	=8	=8	=8	=8	=8	=8	=8	=8	=8	=8	=8	=8
!!LO:LB:g=original
*	*^	*	*^	*	*	*	*^	*	*	*	*^	*	*	*	*^	*	*	*
2D\	4g/ 4b-	2d\	.	4r	4ryy	.	.	.	4r	4ryy	.	.	.	4r	4ryy	.	.	.	4r	4ryy	.	.	.
.	4f#X/ 4a	.	.	4r	4ryy	.	.	.	4r	4ryy	.	.	.	4r	4ryy	.	.	.	4r	4ryy	.	.	.
4DD/ 4D	4f#X/ 4a 4dd	4ryy	.	8D/	4D\	Pod	Na-	.	8A/	4A\	Pod	Na-	.	8f#X/	4f#\	Pod	Na-	.	8dd/	4dd\	Pod	Na-	.
.	.	.	.	8D/	.	po-	.	.	8A/	.	po-	.	.	8f#/	.	po-	.	.	8dd/	.	po-	.	.
*	*	*	*	*	*	*	*	*	*	*	*	*	*	*v	*v	*	*	*	*	*	*	*	*
*	*	*	*	*	*	*	*	*	*	*	*	*	*	*	*	*	*	*v	*v	*	*	*
=9	=9	=9	=9	=9	=9	=9	=9	=9	=9	=9	=9	=9	=9	=9	=9	=9	=9	=9	=9	=9	=9
2.EE-/ 2.E-	4.dd/	2.g\	.	(4.E-\	2ryy	-sta-	-sze-	.	(4.G/	2ryy	-sta-	-sze-	.	(4.g/	-sta-	-sze-	.	(4.dd\	-sta-	-sze-	.
.	8cc/L	.	.	8E-\)	.	-cia-	.	.	8G/)	.	-cia-	.	.	8g/)	-cia-	.	.	8cc\)	-cia-	.	.
.	8ee-/	.	.	(8E-/	4E-\	-mi	-mi	.	(8G/	4G\	-mi	-mi	.	(8g/	.	.	.	(8ee-\	-mi	-mi	.
.	8cc/J	.	.	8E-/)	.	.	.	.	8G/)	.	.	.	.	8e-/)	-mi	-mi	.	8cc\)	.	.	.
*	*v	*v	*	*	*	*	*	*	*v	*v	*	*	*	*	*	*	*	*	*	*	*
*	*	*	*v	*v	*	*	*	*	*	*	*	*	*	*	*	*	*	*	*
=10	=10	=10	=10	=10	=10	=10	=10	=10	=10	=10	=10	=10	=10	=10	=10	=10	=10	=10
2.FF/ 2.F	4d/ 4f 4b-	.	4F\	wi-	wła-	.	4F/	wi-	wła-	.	4d/	wi-	wła-	.	4b-\	wi-	wła-	.
.	4e-/ 4cc	.	4F\	-na	-daj	.	4F/	-na	-daj	.	4e-/	-na	-daj	.	4cc\	-na	-daj	.
.	4c/ 4e- 4a	.	4F\	i	Ser-	.	4e-\	i	Ser-	.	4c/	i	Ser-	.	4a\	i	Ser-	.
=11	=11	=11	=11	=11	=11	=11	=11	=11	=11	=11	=11	=11	=11	=11	=11	=11	=11	=11
4FF/ 4F	8d/L 8f 8b-	.	4F\	chle-	-ca-	.	8d\L	chle-	-ca-	.	4d/	chle-	-ca-	.	8b-\L	chle-	-ca-	.
.	8f/J 8b- 8dd	.	.	.	.	.	8B-\J	.	.	.	.	.	.	.	8dd\J	.	.	.
4FF/ 4F	4f/ 4a 4cc	.	4F\	-ba	-mi	.	4A\	-ba	-mi	.	4f/	-ba	-mi	.	4cc\	-ba	-mi	.
4EE-/ 4E-	4c^/ 4g 4cc	.	4E-\	Bóg	i	.	4G\	Bóg	i	.	4g/	Bóg	i	.	4cc\	Bóg	i	.
=12	=12	=12	=12	=12	=12	=12	=12	=12	=12	=12	=12	=12	=12	=12	=12	=12	=12	=12
*	*^	*	*	*	*	*	*	*	*	*	*	*	*	*	*	*	*	*
2DD/ 2D	2g/ 2b-	2d\	.	2D\	zstą-	mie-	.	2d\	zstą-	mie-	.	2g/	zstą-	mie-	.	2b-/	zstą-	mie-	.
8D/L	4d/ 4f#X 4a	4ryy	.	8D/L	-pił	-szkaj	.	4d\	-pił	-szkaj	.	4f#X/	-pił	-szkaj	.	4a/	-pił	-szkaj	.
8C/J	.	.	.	8C/J	.	.	.	.	.	.	.	.	.	.	.	.	.	.	.
=13	=13	=13	=13	=13	=13	=13	=13	=13	=13	=13	=13	=13	=13	=13	=13	=13	=13	=13	=13
8BB-/L	8g/L	2d\	.	8BB-/L	z Nie-	z na-	.	4d\	z Nie-	z na-	.	4g/	z Nie-	z na-	.	8g/L	z Nie-	z na-	.
8GG/J	8b-/J	.	.	8GG/J	.	.	.	.	.	.	.	.	.	.	.	8b-/J	.	.	.
4D/	4f#X/ 4a	.	.	4D/	-ba	-mi	.	4d\	-ba	-mi	.	4f#X/	-ba	-mi	.	4a/	-ba	-mi	.
!	!	!	!	!	!	!	!LO:DY:a	!	!	!	!LO:DY:a	!	!	!	!LO:DY:a	!	!	!	!LO:DY:a
.	.	.	.	.	.	.	pp	.	.	.	pp	.	.	.	pp	.	.	.	pp
4EE-/ 4E-	4c/ 4g 4cc	4ryy	.	4E-/	Bóg	i	.	4G/	Bóg	i	.	4g/	Bóg	i	.	4cc\	Bóg	i	.
=14	=14	=14	=14	=14	=14	=14	=14	=14	=14	=14	=14	=14	=14	=14	=14	=14	=14	=14	=14
2DD/ 2D	2g/ 2b-	2.d/	.	2D/	zstą-	mie-	.	2d\	zstą-	mie-	.	2g/	zstą-	mie-	.	2b-\	zstą-	mie-	.
8D/L	4f#X/ 4a	.	.	8D/L	-pił	-skaj	.	4d\	-pił	-skaj	.	4f#X/	-pił	-szkaj	.	4a/	-pił	-szkaj	.
8C/J	.	.	.	8C/J	.	.	.	.	.	.	.	.	.	.	.	.	.	.	.
=	=	=	=	=	=	=	=	=	=	=	=	=	=	=	=	=	=	=	=
8BB-/L	8g/L	2d\	.	8BB-/L	z Nie-	z na-	.	4d\	z Nie-	z na-	.	4g/	z Nie-	z na-	.	8g/L	z Nie-	z na-	.
8GG/J	8b-/J	.	.	8GG/J	.	.	.	.	.	.	.	.	.	.	.	8b-/J	.	.	.
4D\	4f#X/ 4a	.	.	4D/	-ba	-mi	.	4d\	-ba	-mi	.	4f#X/	-ba	-mi	.	4a/	-ba	-mi	.
*	*v	*v	*	*	*	*	*	*	*	*	*	*	*	*	*	*	*	*	*
=15:|!	=15:|!	=15:|!	=15:|!	=15:|!	=15:|!	=15:|!	=15:|!	=15:|!	=15:|!	=15:|!	=15:|!	=15:|!	=15:|!	=15:|!	=15:|!	=15:|!	=15:|!	=15:|!
!!LO:PB:g=original
*>B	*>B	*	*>B	*	*	*	*>B	*	*	*	*>B	*	*	*	*>B	*	*	*
!	!	!LO:DY:rj	!	!	!	!	!	!	!	!	!	!	!	!	!	!	!	!
4CC/ 4C	4c/ 4e- 4fn 4a	f	4r	.	.	.	4r	.	.	.	4r	.	.	.	4r	.	.	.
=16	=16	=16	=16	=16	=16	=16	=16	=16	=16	=16	=16	=16	=16	=16	=16	=16	=16	=16
!	!LO:TX:b:Bi:t=più di moto.	!	!	!	!	!	!	!	!	!	!	!	!	!	!	!	!	!
2.BBB-/ 2.BB-	4d/ 4f 4b-	.	8r	.	.	.	8r	.	.	.	8r	.	.	.	8r	.	.	.
!	!	!	!	!	!	!	!	!	!	!	!	!	!	!	!LO:TX:a:Bi:t=uno poco più di moto.	!	!	!
.	.	.	8BB-/	Bło-	.	.	8d\	Bło-	.	.	8f/	Bło-	.	.	8b-\	Bło-	.	.
.	4c/ 4e- 4f 4a	.	4BB-/	-go-	.	.	4c\	-go-	.	.	4e-/	-go-	.	.	4a\	-go-	.	.
.	4d/ 4f 4b-	.	4BB-/	-sław	.	.	4B-\	-sław	.	.	4d/	-sław	.	.	4b-\	-sław	.	.
=17	=17	=17	=17	=17	=17	=17	=17	=17	=17	=17	=17	=17	=17	=17	=17	=17	=17	=17
2.BBB-/ 2.BB-	4f/ 4b- 4dd	.	4BB-/	Bo-	.	.	4f\	Bo-	.	.	4d/	Bo-	.	.	4dd\	Bo-	.	.
.	4e-/ 4a 4cc	.	4BB-/	-że	.	.	4e-\	-że	.	.	4f/	-że	.	.	4cc\	-że	.	.
.	4d/ 4f 4b-	.	4BB-/	two-	.	.	4d\	two-	.	.	4f/	two-	.	.	4b-\	two-	.	.
=18	=18	=18	=18	=18	=18	=18	=18	=18	=18	=18	=18	=18	=18	=18	=18	=18	=18	=18
2.BBB-/ 2.BB-	4f/ 4b- 4dd	.	4BB-/	-ie-	.	.	4f\	-ie-	.	.	4f/	-ie-	.	.	4dd\	-ie-	.	.
.	4e-/ 4a 4cc	.	4BB-/	-mu	.	.	4e-\	-mu	.	.	4f/	-mu	.	.	4cc\	-mu	.	.
.	4d/ 4f 4b-	.	4BB-/	lu-	.	.	4d\	lu-	.	.	4f/	lu-	.	.	4b-\	lu-	.	.
=19	=19	=19	=19	=19	=19	=19	=19	=19	=19	=19	=19	=19	=19	=19	=19	=19	=19	=19
2BBB-/ 2BB-	4c/ 4e- 4f 4a	.	4BB-/	-do-	.	.	4c\	-do-	.	.	4e-/	-do-	.	.	4a/	-do-	.	.
.	4d/ 4f 4b-	.	4BB-/	-wi	.	.	4B-\	-wi	.	.	4d/	-wi	.	.	4b-\	-wi	.	.
8BBB-/L 8BB-	4f\ 4b- 4dd	.	8BB-/L	Przyim	.	.	4B-\	Przyim	.	.	4f/	Przyim	.	.	4dd\	Przyim	.	.
8DD/J 8D	.	.	8D/J	.	.	.	.	.	.	.	.	.	.	.	.	.	.	.
=20	=20	=20	=20	=20	=20	=20	=20	=20	=20	=20	=20	=20	=20	=20	=20	=20	=20	=20
*	*^	*	*	*	*	*	*	*	*	*	*	*	*	*	*	*	*	*
2.FF/ [2.F	4.a/ 4.cc	2f\	.	4.F\	te	.	.	4.A\	te	.	.	4.f/	te	.	.	4.cc\	te	.	.
.	8b-/L 8dd	.	.	8F\	o-	.	.	8B-\	o-	.	.	8f/	o-	.	.	8dd\	o-	.	.
.	8f/ 8a 8cc	4ryy	.	8F\	-fia-	.	.	8A\	-fia-	.	.	8f/	-fia-	.	.	8cc\	-fia-	.	.
.	8b-/J 8dd	.	.	8F\	-re	.	.	8B-\	-re	.	.	8f/	-re	.	.	8dd\	-re	.	.
=21	=21	=21	=21	=21	=21	=21	=21	=21	=21	=21	=21	=21	=21	=21	=21	=21	=21	=21	=21
2.FF/ 2.F_	4.a/ 4.cc	2f\	.	4.F\	czci	.	.	4.A\	czci	.	.	4.f/	czci	.	.	4.cc\	czci	.	.
.	8b-/L 8dd	.	.	8F\	i	.	.	8B-\	i	.	.	8f/	i	.	.	8dd\	i	.	.
.	8a/ 8cc	4ryy	.	8F\	dzięk-	.	.	8A\	dzięk-	.	.	8f/	dzięk-	.	.	8cc\	dzięk-	.	.
.	8g/J 8b-	.	.	8F\	-czy-	.	.	8G\	-czy-	.	.	8f/	-czy-	.	.	8b-\	-czy-	.	.
*	*v	*v	*	*	*	*	*	*	*	*	*	*	*	*	*	*	*	*	*
=22	=22	=22	=22	=22	=22	=22	=22	=22	=22	=22	=22	=22	=22	=22	=22	=22	=22	=22
.	8qqb-/	.	.	.	.	.	8qG/	.	.	.	.	.	.	.	8qqb-/	.	.	.
2FF/ 2F]	2f/ 2a	.	4F\	-nie-	.	.	4F/	-nie-	.	.	4f/	-nie-	.	.	4a/	-nie-	.	.
.	.	.	8F\	-nia	.	.	8F/	-nia	.	.	8f/	-nia	.	.	8a/	-nia	.	.
.	.	.	8r	.	.	.	8r	.	.	.	8r	.	.	.	8r	.	.	.
4FF/ 4F	4a/ 4cc	.	4F\	Niech	.	.	4A/	Niech	.	.	4f/	Niech	.	.	4cc\	Niech	.	.
=23	=23	=23	=23	=23	=23	=23	=23	=23	=23	=23	=23	=23	=23	=23	=23	=23	=23	=23
2.FF/ 2.F	4a\ 4cc	.	2F\	two-	.	.	(4A/	two-	.	.	2f/	two-	.	.	(4cc\	two-	.	.
.	4g\ 4b-	.	.	.	.	.	4G/)	.	.	.	.	.	.	.	4b-\)	.	.	.
.	4f\ 4a	.	4F\	-ia	.	.	4F/	-ia	.	.	4f/	-ia	.	.	4a\	-ia	.	.
=24	=24	=24	=24	=24	=24	=24	=24	=24	=24	=24	=24	=24	=24	=24	=24	=24	=24	=24
4BBB-/ 4BB-	2f/ 2b- 2dd	.	(4BB-/	łas-	.	.	2B-\	łas-	.	.	2f/	łas-	.	.	2dd\	łas-	.	.
4DD/ 4D	.	.	4D/)	.	.	.	.	.	.	.	.	.	.	.	.	.	.	.
4FF/ 4F	4f/ 4a 4cc	.	4F\	-ka	.	.	4A\	-ka	.	.	4f/	-ka	.	.	4cc\	-ka	.	.
=25	=25	=25	=25	=25	=25	=25	=25	=25	=25	=25	=25	=25	=25	=25	=25	=25	=25	=25
*	*^	*	*	*	*	*	*	*	*	*	*	*	*	*	*	*	*	*
2.CC/ 2.C	4en/ 4g 4b-	4ryy	.	8C/	du-	.	.	8en\	du-	.	.	8g/	du-	.	.	8b-\	du-	.	.
.	.	.	.	8C/	-cha	.	.	8e\	-cha	.	.	8g/	-cha	.	.	8b-\	-cha	.	.
.	4f/ 4a	2c\	.	4C/	w nas	.	.	4f\	w nas	.	.	4f/	w nas	.	.	4a/	w nas	.	.
.	4en/ 4g	.	.	4C/	od-	.	.	4c\	od-	.	.	4en/	od-	.	.	4g/	od-	.	.
=26	=26	=26	=26	=26	=26	=26	=26	=26	=26	=26	=26	=26	=26	=26	=26	=26	=26	=26	=26
!!LO:LB:g=original
.	8qb-/	.	.	.	.	.	.	.	.	.	.	.	.	.	.	8qqb-/	.	.	.
2FF/ 2F	4.f/ 4.a	4.c\	.	4F\	-no-	.	.	4c\	-no-	.	.	4f/	-no-	.	.	4a/	-no-	.	.
.	.	.	.	8F\	-wi	.	.	8c\	-wi	.	.	8f/	-wi	.	.	8a/	-wi	.	.
.	8a/L 8cc	8f\	.	8F\	i	.	.	8A\	i	.	.	8f/	i	.	.	8cc/	i	.	.
8FF/L 8F	8b-/ 8dd	4f\	.	8F\	u-	.	.	8B-\	u-	.	.	8f/	u-	.	.	8dd\	u-	.	.
8EE-/J 8E-	8a/J 8cc 8ee-	.	.	8E-\	-to-	.	.	8c\	-to-	.	.	8a/	-to-	.	.	8ee-\	-to-	.	.
=27	=27	=27	=27	=27	=27	=27	=27	=27	=27	=27	=27	=27	=27	=27	=27	=27	=27	=27	=27
2DD/ 2D	2ff/	2f\ 2b-	.	2D\	-ru-	.	.	2B-\	-ru-	.	.	2b-\	-ru-	.	.	2ff\	-ru-	.	.
4EE-/ 4E-	4b-\ 4ee- 4gg	4ryy	.	4E-\	-ie	.	.	4B-\	-ie	.	.	4b-\	-ie	.	.	4gg\	-ie	.	.
*	*v	*v	*	*	*	*	*	*	*	*	*	*	*	*	*	*	*	*	*
=28	=28	=28	=28	=28	=28	=28	=28	=28	=28	=28	=28	=28	=28	=28	=28	=28	=28	=28
2.FF/ 2.F	4.b-\ 4.dd 4.ff	.	4.F\	dro-	.	.	4.d\	dro-	.	.	4.b-/	dro-	.	.	4.ff\	dro-	.	.
.	8a\ 8cc 8ee-	.	8F\	-gę	.	.	8c\	-gę	.	.	8f/	-gę	.	.	8ee-\	-gę	.	.
.	8f\L 8b- 8dd	.	8F\	do	.	.	8d\	do	.	.	8b-/	do	.	.	8dd\	do	.	.
.	8e-\J 8a 8cc	.	8F\	zba-	.	.	8e-\	zba-	.	.	8a/	zba-	.	.	8cc\	zba-	.	.
=29	=29	=29	=29	=29	=29	=29	=29	=29	=29	=29	=29	=29	=29	=29	=29	=29	=29	=29
.	.	.	.	.	.	.	8qqe-/	.	.	.	.	.	.	.	8qqcc/	.	.	.
2.BBB-/ 2.BB-	2d/ 2f 2b-	.	4BB-/	-wie-	.	.	4d\	-wie-	.	.	4b-\	-wie-	.	.	4b-\	-wie-	.	.
.	.	.	8BB-/	-nia	.	.	8d\	-nia	.	.	8b-\	-nia	.	.	8b-\	-nia	.	.
.	.	.	8r	.	.	.	8r	.	.	.	8r	.	.	.	8r	.	.	.
.	4c/ 4e- 4f 4a	.	4r	.	.	.	4r	.	.	.	4r	.	.	.	4r	.	.	.
=30	=30	=30	=30	=30	=30	=30	=30	=30	=30	=30	=30	=30	=30	=30	=30	=30	=30	=30
2.BBB-/ 2.BB-	4d/ 4f 4b-	.	8r	.	.	.	8r	.	.	.	8r	.	.	.	8r	.	.	.
.	.	.	8BB-/	Wzbudz	.	.	8d\	Wzbudz	.	.	8f/	Wzbudz	.	.	8b-\	Wzbudz	.	.
.	4c/ 4e- 4f 4a	.	4BB-/	mi-	.	.	4c\	mi-	.	.	4e-/	mi-	.	.	4a\	mi-	.	.
.	4d/ 4f 4b-	.	4BB-/	-łość	.	.	4B-\	-łość	.	.	4d/	-łość	.	.	4b-\	-łość	.	.
=31	=31	=31	=31	=31	=31	=31	=31	=31	=31	=31	=31	=31	=31	=31	=31	=31	=31	=31
2.BBB-/ 2.BB-	4f\ 4b- 4dd	.	4BB-/	cno-	.	.	4f\	cno-	.	.	4d/	cno-	.	.	4dd\	cno-	.	.
.	4e-\ 4a 4cc	.	4BB-/	-ty	.	.	4e-\	-ty	.	.	4f/	-ty	.	.	4cc\	-ty	.	.
.	4d\ 4f 4b-	.	4BB-/	wzbudz	.	.	4d\	wzbudz	.	.	4f/	wzbudz	.	.	4b-\	wzbudz	.	.
=32	=32	=32	=32	=32	=32	=32	=32	=32	=32	=32	=32	=32	=32	=32	=32	=32	=32	=32
2.BBB-/ 2.BB-	4f\ 4b- 4dd	.	4BB-/	w nas	.	.	4f\	w nas	.	.	4f/	w nas	.	.	4dd\	w nas	.	.
.	4e-\ 4a 4cc	.	4BB-/	żal	.	.	4e-\	żal	.	.	4f/	żal	.	.	4cc\	żal	.	.
.	4d\ 4f 4b-	.	4BB-/	ża	.	.	4d\	za	.	.	4f/	za	.	.	4b-\	za	.	.
=33	=33	=33	=33	=33	=33	=33	=33	=33	=33	=33	=33	=33	=33	=33	=33	=33	=33	=33
2BBB-/ 2BB-	4c/ 4e- 4f 4a	.	4BB-/	grze-	.	.	4c\	grze-	.	.	4f/	grze-	.	.	4a/	grze-	.	.
.	4d/ 4f 4b-	.	4BB-/	-chy	.	.	4B-\	-chy	.	.	4d/	-chy	.	.	4b-/	-chy	.	.
8BBB-/L 8BB-	4f/ 4b- 4dd	.	8BB-/L	po-	.	.	4B-\	po-	.	.	4f/	po-	.	.	4dd\	po-	.	.
8DD/J 8D	.	.	8D/J	.	.	.	.	.	.	.	.	.	.	.	.	.	.	.
=34	=34	=34	=34	=34	=34	=34	=34	=34	=34	=34	=34	=34	=34	=34	=34	=34	=34	=34
*	*^	*	*	*	*	*	*	*	*	*	*	*	*	*	*	*	*	*
2.FF\ [2.F	4.a/ 4.cc	2.f\	.	4.F\	-ku-	.	.	4.A\	-ku-	.	.	4.f/	-ku-	.	.	4.cc\	-ku-	.	.
.	8b-/L 8dd	.	.	8F\	-tu-	.	.	8B-\	-tu-	.	.	8f/	-tu-	.	.	8dd\	-tu-	.	.
.	8a/ 8cc	.	.	8F\	-ią-	.	.	8A\	-ią-	.	.	8f/	-ią-	.	.	8cc\	-ią-	.	.
.	8b-/J 8dd	.	.	8F\	-cym	.	.	8B-\	-cym	.	.	8f/	-cym	.	.	8dd\	-cym	.	.
=35	=35	=35	=35	=35	=35	=35	=35	=35	=35	=35	=35	=35	=35	=35	=35	=35	=35	=35	=35
2.FF/ 2.F]	4.a/ 4.cc	2.f\	.	4.F\	o-	.	.	4.A\	o-	.	.	4.f/	o-	.	.	4.cc\	o-	.	.
.	8b-/L 8dd	.	.	8F\	-każ	.	.	8B-\	-każ	.	.	8f/	-każ	.	.	8dd\	-każ	.	.
.	8a/ 8cc	.	.	8F\	Oj-	.	.	8A\	Oj-	.	.	8f/	Oj-	.	.	8cc\	Oj-	.	.
.	8g/J 8b-	.	.	8F\	-ca	.	.	8G\	-ca	.	.	8f/	-ca	.	.	8b-\	-ca	.	.
*	*v	*v	*	*	*	*	*	*	*	*	*	*	*	*	*	*	*	*	*
=36	=36	=36	=36	=36	=36	=36	=36	=36	=36	=36	=36	=36	=36	=36	=36	=36	=36	=36
!!LO:PB:g=original
.	8qqb-/	.	.	.	.	.	.	.	.	.	.	.	.	.	8qqb-/	.	.	.
2FF/ 2F	2f/ 2a	.	4F\	li-	.	.	4F/	li-	.	.	4f/	li-	.	.	4a/	li-	.	.
.	.	.	8F\	-tość	.	.	8F/	-tość	.	.	8f/	-tość	.	.	8a/	-tość	.	.
.	.	.	8r	.	.	.	8r	.	.	.	8r	.	.	.	8r	.	.	.
4FF/ 4F	4a/ [4cc	.	[4F\	w Ser-	.	.	[4A/	w Ser-	.	.	[4f/	w Ser-	.	.	[4cc\	w Ser-	.	.
=37	=37	=37	=37	=37	=37	=37	=37	=37	=37	=37	=37	=37	=37	=37	=37	=37	=37	=37
2.FF/ 2.F	4a\ 4cc]	.	4F\]	.	.	.	4A/]	.	.	.	4f/]	.	.	.	4cc\]	.	.	.
.	4g\ 4b-	.	4F\	-ca	.	.	4G/	-ca	.	.	4f/	-ca	.	.	4b-\	-ca	.	.
.	4f\ 4a	.	4F\	stra-	.	.	4F/	stra-	.	.	4f/	stra-	.	.	4a\	stra-	.	.
=38	=38	=38	=38	=38	=38	=38	=38	=38	=38	=38	=38	=38	=38	=38	=38	=38	=38	=38
4BBB-/ 4BB-	2f/ 2b- 2dd	.	(4BB-/	-pio-	.	.	2B-\	-pio-	.	.	2f/	-pio-	.	.	2dd\	-pio-	.	.
4DD/ 4D	.	.	4D/)	.	.	.	.	.	.	.	.	.	.	.	.	.	.	.
4FF/ 4F	4f/ 4a 4cc	.	4F\	-nych	.	.	4A\	-nych	.	.	4f/	-nych	.	.	4cc\	-nych	.	.
=39	=39	=39	=39	=39	=39	=39	=39	=39	=39	=39	=39	=39	=39	=39	=39	=39	=39	=39
*	*^	*	*	*	*	*	*	*	*	*	*	*	*	*	*	*	*	*
2.CC/ 2.C	4en/ 4g 4b-	4ryy	.	8C/	Swię-	.	.	8en\	Swię-	.	.	8g/	Swię-	.	.	8b-\	Swię-	.	.
.	.	.	.	8C/	-te	.	.	8e\	-te	.	.	8g/	-te	.	.	8b-\	-te	.	.
.	4f/ 4a	2c\	.	4C/	wléj	.	.	4f\	wléj	.	.	4f/	wléj	.	.	4a/	wléj	.	.
.	4en/ 4g	.	.	4C/	po-	.	.	4c\	po-	.	.	4en/	po-	.	.	4g/	po-	.	.
=40	=40	=40	=40	=40	=40	=40	=40	=40	=40	=40	=40	=40	=40	=40	=40	=40	=40	=40	=40
.	8qqb-/	.	.	.	.	.	.	.	.	.	.	.	.	.	.	8qqb-/	.	.	.
2FF/ 2F	4.c/ 4.f 4.a	4ryy	.	4F\	-cie-	.	.	4c\	-cie-	.	.	4f/	-cie-	.	.	4a/	-cie-	.	.
.	.	8ryy	.	8F\	-chy	.	.	8c\	-chy	.	.	8f/	-chy	.	.	8a/	-chy	.	.
.	8a/L 8cc	8f\	.	8F\	i	.	.	8A\	i	.	.	8f/	i	.	.	8cc\	i	.	.
8FF/L 8F	8b-/ 8dd	4f\	.	8F\	daj	.	.	8B-\	daj	.	.	8f/	daj	.	.	8dd\	daj	.	.
8EE-/J 8E-	8cc/J 8ee-	.	.	8E-\	nam	.	.	8c\	nam	.	.	8a/	nam	.	.	8ee-\	nam	.	.
*	*v	*v	*	*	*	*	*	*	*	*	*	*	*	*	*	*	*	*	*
=41	=41	=41	=41	=41	=41	=41	=41	=41	=41	=41	=41	=41	=41	=41	=41	=41	=41	=41
2DD/ 2D	2f\ 2b- 2ff	.	2D\	zgo-	.	.	2B-\	zgo-	.	.	2b-\	zgo-	.	.	2ff\	zgo-	.	.
4EE-/ 4E-	4b-\ 4ee- 4gg	.	4E-\	-dę	.	.	4B-\	-dę	.	.	4b-\	-dę	.	.	4gg\	-dę	.	.
=42	=42	=42	=42	=42	=42	=42	=42	=42	=42	=42	=42	=42	=42	=42	=42	=42	=42	=42
2.FF/ 2.F	4.b-\ 4.dd 4.ff	.	4.F\	po-	.	.	4.d\	po-	.	.	4.b-\	po-	.	.	4.ff\	po-	.	.
.	8a\L 8cc 8ee-	.	8F\	-koy	.	.	8c\	-koy	.	.	8f/	-koy	.	.	8ee-\	-koy	.	.
.	8f\ 8b- 8dd	.	8F\	i	.	.	8d\	i	.	.	8b-/	i	.	.	8dd\	i	.	.
.	8e-\J 8a 8cc	.	8F\	ob-	.	.	8e-\	ob-	.	.	8a/	ob-	.	.	8cc\	ob-	.	.
=43	=43	=43	=43	=43	=43	=43	=43	=43	=43	=43	=43	=43	=43	=43	=43	=43	=43	=43
*	*^	*	*	*	*	*	*	*	*	*	*	*	*	*	*	*	*	*
4.BBB-/ 4.BB-	4.d\ 4.f 4.b- 4.dd	4ryy	.	4B-\	-fi-	.	.	4d\	-fi-	.	.	4b-\	-fi-	.	.	4dd\	-fi-	.	.
.	.	8ryy	.	8B-\	-tość	.	.	8d\	-tość	.	.	8b-\	-tość	.	.	8dd\	-tość	.	.
8FF/L 8F	8a/L	8f\ 8cc	.	8F\	i	.	.	8A\	i	.	.	8f/	i	.	.	8cc\	i	.	.
8FF/ 8F	8b-/ 8dd	4f\	.	8F\	daj	.	.	8B-\	daj	.	.	8f/	daj	.	.	8dd\	daj	.	.
8EE-/J 8E-	8cc/J 8ee-	.	.	8E-\	nam	.	.	8c\	nam	.	.	8a/	nam	.	.	8ee-\	nam	.	.
*	*v	*v	*	*	*	*	*	*	*	*	*	*	*	*	*	*	*	*	*
=44	=44	=44	=44	=44	=44	=44	=44	=44	=44	=44	=44	=44	=44	=44	=44	=44	=44	=44
2DD/ 2D	2f\ 2b- 2ff	.	2D\	zgo-	.	.	2B-\	zgo-	.	.	2b-\	zgo-	.	.	2ff\	zgo-	.	.
4EE-/ 4E-	4b-\ 4ee- 4gg	.	4E-\	-dę	.	.	4B-\	-dę	.	.	4b-/	-dę	.	.	4gg\	-dę	.	.
=45	=45	=45	=45	=45	=45	=45	=45	=45	=45	=45	=45	=45	=45	=45	=45	=45	=45	=45
!!LO:LB:g=original
2.FF/ 2.F	4.b-\ 4.dd 4.ff	.	4.F\	po-	.	.	4.d\	po-	.	.	4.b-/	po-	.	.	4.ff\	po-	.	.
.	8a\ 8cc 8ee-	.	8F\	-koj	.	.	8c\	-koj	.	.	8f/	-koj	.	.	8ee-\	-koj	.	.
.	8f\L 8b- 8dd	.	8F\	i	.	.	8d\	i	.	.	8b-/	i	.	.	8dd\	i	.	.
.	8e-\J 8a 8cc	.	8F\	ob-	.	.	8e-\	ob-	.	.	8a/	ob-	.	.	8cc\	ob-	.	.
=46	=46	=46	=46	=46	=46	=46	=46	=46	=46	=46	=46	=46	=46	=46	=46	=46	=46	=46
.	8qqe-/ 8qqa 8qqcc	.	.	.	.	.	8qqe-/	.	.	.	8qqa/	.	.	.	8qqcc/	.	.	.
2BBB-/ 2BB-	4.d/ 4.f 4.b-	.	4BB-/	-fi-	.	.	4d\	-fi-	.	.	4b-\	-fi-	.	.	4b-\	-fi-	.	.
.	.	.	8BB-/	-tość	.	.	8d\	-tość	.	.	8b-\	-tość	.	.	8b-\	-tość	.	.
.	8b-/L	.	8r	.	.	.	8r	.	.	.	8b-\	i	.	.	8b-\	i	.	.
4r	8a/ 8cc	.	4r	.	.	.	4r	.	.	.	8a/	daj	.	.	8cc\	daj	.	.
.	8b-/J 8dd	.	.	.	.	.	.	.	.	.	8b-/	znam	.	.	8dd\	znam	.	.
=47	=47	=47	=47	=47	=47	=47	=47	=47	=47	=47	=47	=47	=47	=47	=47	=47	=47	=47
2FF/ 2F	2.a\ 2.cc 2.ee-	.	(2F\	zgo-	.	.	2.c\	zgo-	.	.	2.a/	zgo-	.	.	2.ee-\	zgo-	.	.
4FF#X/ 4F#X	.	.	4F#X\)	.	.	.	.	.	.	.	.	.	.	.	.	.	.	.
=48	=48	=48	=48	=48	=48	=48	=48	=48	=48	=48	=48	=48	=48	=48	=48	=48	=48	=48
2GG/ 2G	2b-\ 2dd	.	2G\	-dę	.	.	2.B-\	-dę	.	.	2b-\	-dę	.	.	2dd\	-dę	.	.
4r	4r	.	4r	.	.	.	.	.	.	.	4r	.	.	.	4r	.	.	.
=49	=49	=49	=49	=49	=49	=49	=49	=49	=49	=49	=49	=49	=49	=49	=49	=49	=49	=49
2.EE-/ 2.E-	2.b-\ 2.ee- 2.gg	.	2.E-\	po-	.	.	2.e-\	po-	.	.	2.b-\	po-	.	.	2.gg\	po-	.	.
=50	=50	=50	=50	=50	=50	=50	=50	=50	=50	=50	=50	=50	=50	=50	=50	=50	=50	=50
2BB-\ 2B-	2b-\ 2dd 2ff	.	2B-\	-koj	.	.	2d\	-koj	.	.	2b-\	-koj	.	.	2ff\	-koj	.	.
4r	4r	.	4r	.	.	.	4r	.	.	.	4r	.	.	.	4r	.	.	.
=51	=51	=51	=51	=51	=51	=51	=51	=51	=51	=51	=51	=51	=51	=51	=51	=51	=51	=51
4BBB-/ 4BB-	4b-\ 4dd 4ff 4bb-	ff	4r	.	.	.	4r	.	.	.	4r	.	.	.	4r	.	.	.
4GG\ 4G	4g\ 4b- 4dd	.	4G\	i	.	.	4B-\	i	.	.	4g/	i	.	.	4dd\	i	.	.
4CC/ 4C	4g\ 4cc 4ee-	.	4C/	ob-	.	.	4c\	ob-	.	.	4g/	ob-	.	.	4ee-\	ob-	.	.
=52	=52	=52	=52	=52	=52	=52	=52	=52	=52	=52	=52	=52	=52	=52	=52	=52	=52	=52
2.FF/ [2.F	2.f/ 2.a [2.cc	.	[2.F\	-fi-	.	.	[2.A\	-fi-	.	.	[>2.f/	-fi-	.	.	[2.cc\	-fi-	.	.
=53	=53	=53	=53	=53	=53	=53	=53	=53	=53	=53	=53	=53	=53	=53	=53	=53	=53	=53
*	*^	*	*	*	*	*	*	*	*	*	*	*	*	*	*	*	*	*
2.FF/ 2.F]	2.a/ 2.cc]	2f\	.	2.F\]	.	.	.	2.A\]	.	.	.	2f/]	.	.	.	2.cc\]	.	.	.
.	.	4e-\	.	.	.	.	.	.	.	.	.	4e-/	.	.	.	.	.	.	.
*	*v	*v	*	*	*	*	*	*	*	*	*	*	*	*	*	*	*	*	*
=54	=54	=54	=54	=54	=54	=54	=54	=54	=54	=54	=54	=54	=54	=54	=54	=54	=54	=54
2.BBB-/ [2.BB-	2d/ 2f 2b-	.	2BB-/	-tość.	.	.	2B-\	-tość.	.	.	2d/	-tość.	.	.	2b-\	-tość.	.	.
.	4e-/ 4g 4b-	.	4r	.	.	.	4r	.	.	.	4r	.	.	.	4r	.	.	.
=55	=55	=55	=55	=55	=55	=55	=55	=55	=55	=55	=55	=55	=55	=55	=55	=55	=55	=55
2.BBB-/ 2.BB-_	2d/ 2f 2b-	.	2.r	.	.	.	2.r	.	.	.	2.r	.	.	.	2.r	.	.	.
.	4e-/ 4g 4b-	.	.	.	.	.	.	.	.	.	.	.	.	.	.	.	.	.
=56	=56	=56	=56	=56	=56	=56	=56	=56	=56	=56	=56	=56	=56	=56	=56	=56	=56	=56
2.BBB-/ 2.BB-_	2.d/ 2.f [2.b-	.	2.r	.	.	.	2.r	.	.	.	2.r	.	.	.	2.r	.	.	.
=57	=57	=57	=57	=57	=57	=57	=57	=57	=57	=57	=57	=57	=57	=57	=57	=57	=57	=57
2.BBB-/ 2.BB-]	2.d/ 2.f 2.b-]	.	2.r	.	.	.	2.r	.	.	.	2.r	.	.	.	2.r	.	.	.
==	==	==	==	==	==	==	==	==	==	==	==	==	==	==	==	==	==	==
*-	*-	*-	*-	*-	*-	*-	*-	*-	*-	*-	*-	*-	*-	*-	*-	*-	*-	*-
!!!system-decoration: s1,s2,s3,s4{(s5,s6)}
!!!RDF**kern: > = above
!!!RDF**kern: < = below
!!!ENC: Andrzej Kubiczek
!!!END: 2020-03-03
!!!ENC: Marta Lawrence
!!!END: 2020-04-03
!!!YEC: Copyright 2022 Narodowy Instytut Fryderyka Chopina (https://polishscores.org)
!!!YEM: License CC-BY-4.0 (https://creativecommons.org/licenses/by/4.0)
